icons/2_Variations/Ubisoft bg.var.svg

<svg width="1024" height="1024" viewBox="0 0 1024 1024" fill="none" xmlns="http://www.w3.org/2000/svg">
<g clip-path="url(#clip0_3_302)">
<path d="M512 1024C794.77 1024 1024 794.77 1024 512C1024 229.23 794.77 0 512 0C229.23 0 0 229.23 0 512C0 794.77 229.23 1024 512 1024Z" fill="#BD9AFF"/>
<path d="M758.6 511.801C753.1 249.501 404.3 151.701 270 397.501C276 401.901 284.1 407.701 290.1 411.801C280.2 432.601 273.2 454.601 269.3 477.201C266.7 491.801 265.4 506.601 265.4 521.401C265.4 657.401 375.9 767.901 512.2 767.901C648.5 767.901 758.7 657.601 758.7 521.401V511.801H758.6ZM326.2 555.701C323 582.301 325 590.601 325 593.901L319 596.001C316.7 591.601 311.1 576.101 308.6 555.301C302.1 476.001 356.2 404.501 438.8 391.101C514.4 380.001 586.8 426.901 603.7 492.601L597.7 494.701C595.8 492.801 592.8 487.501 581.3 476.001C489.9 384.601 346.5 426.401 326.2 555.701ZM560.9 600.101C548.3 618.201 527.7 629.001 505.6 629.001C468.5 629.001 438.3 599.001 438.3 561.901V561.701C438.4 526.501 465.6 497.201 500.7 494.601C522.4 493.701 542.8 505.501 552.3 524.401C562.7 545.301 558.9 570.501 542.6 587.301C548.9 591.801 554.9 595.901 560.9 600.101ZM701.3 602.601C665.7 683.301 592.4 725.601 514.2 724.501C364.1 717.101 320.4 543.901 420.8 481.501L425.2 485.901C423.6 488.201 417.6 492.801 408.3 511.101C397.4 533.301 394 555.501 395.4 569.401C403.3 690.401 572.8 715.101 631 595.301C705.2 431.301 508.2 264.601 333.4 392.001L329.5 388.101C375.5 316.001 465.5 283.801 551.3 305.301C682.3 338.301 752.9 475.001 701.3 602.601Z" fill="white"/>
</g>
<defs>
<clipPath id="clip0_3_302">
<rect width="1024" height="1024" fill="white"/>
</clipPath>
</defs>
</svg>

<svg xmlns="http://www.w3.org/2000/svg" width="1024" height="1024" fill="none">
   <g clip-path="url(#a)">
      <path fill="#BD9AFF" d="M512 1024c282.77 0 512-229.23 512-512S794.77 0 512 0 0 229.23 0 512s229.23 512 512 512Z"/>
      <path fill="#fff" d="M758.6 511.801c-5.5-262.3-354.3-360.1-488.6-114.3 6 4.4 14.1 10.2 20.1 14.3-9.9 20.8-16.9 42.8-20.8 65.4-2.6 14.6-3.9 29.4-3.9 44.2 0 136 110.5 246.5 246.8 246.5s246.5-110.3 246.5-246.5v-9.6h-.1Zm-432.4 43.9c-3.2 26.6-1.2 34.9-1.2 38.2l-6 2.1c-2.3-4.4-7.9-19.9-10.4-40.7-6.5-79.3 47.6-150.8 130.2-164.2 75.6-11.1 148 35.8 164.9 101.5l-6 2.1c-1.9-1.9-4.9-7.2-16.4-18.7-91.4-91.4-234.8-49.6-255.1 79.7Zm234.7 44.4c-12.6 18.1-33.2 28.9-55.3 28.9-37.1 0-67.3-30-67.3-67.1v-.2c.1-35.2 27.3-64.5 62.4-67.1 21.7-.9 42.1 10.9 51.6 29.8 10.4 20.9 6.6 46.1-9.7 62.9 6.3 4.5 12.3 8.6 18.3 12.8Zm140.4 2.5c-35.6 80.7-108.9 123-187.1 121.9-150.1-7.4-193.8-180.6-93.4-243l4.4 4.4c-1.6 2.3-7.6 6.9-16.9 25.2-10.9 22.2-14.3 44.4-12.9 58.3 7.9 121 177.4 145.7 235.6 25.9 74.2-164-122.8-330.7-297.6-203.3l-3.9-3.9c46-72.1 136-104.3 221.8-82.8 131 33 201.6 169.7 150 297.3Z"/>
   </g>
   <defs>
      <clipPath id="a">
         <path fill="#fff" d="M0 0h1024v1024H0z"/>
      </clipPath>
   </defs>
</svg>
